!!!SOCIAL_FUNCTION:	songs of the drum-presentation ceremony
!!!PDT:	1913
!!!OTL: No_71_Song_of_the_Closed_Door.krn
!!!REG: Great_Lakes
!!!LANG: Non-Tone
!!!LING_GROUP: Algonquin
**kern	**kern
*staff2	*staff1
=1-	=1-
*clefF4	*clefF4
*k[b-]	*k[b-]
*M3/4	*M3/4
8GG/L	8.e\L
8GG/J	.
.	16e\Jk
8GG/L	4e\
8GG/J	.
8GG/L	4d;\
8GG/J	.
=2	=2
2.r	8.c\L
.	16c\Jk
.	4c\
.	8.G\L
.	16G\Jk
=3||	=3||
*M2/4	*M2/4
2r	2G\
=4||	=4||
*M3/4	*M3/4
2.r	8.e\L
.	16e\Jk
.	4e\
.	4d;\
=5	=5
2.r	8.c\L
.	16c\Jk
.	4c\
.	8.G\L
.	16G\Jk
=6||	=6||
*M2/4	*M2/4
2r	2G\
=7	=7
2r	8c\L
.	8c\J
.	16c\LK
.	8.A\J
=8	=8
2r	8.G\L
.	16A\Jk
.	12G\L
.	8F\
.	24F\Jk
=9||	=9||
*M3/4	*M3/4
2.r	8.F\L
.	16G\Jk
.	8F\L
.	8D\J
.	4C/
=10||	=10||
*M2/4	*M2/4
2r	12C\L
.	8F\
.	24F\Jk
.	4F\
=11	=11
2r	12A\L
.	8A\
.	24A\Jk
.	8.G\L
.	16A\Jk
=12	=12
2r	16.G\LL
.	32A\K
.	16G\
.	16F\JJ
.	8.F\L
.	16F\Jk
=13	=13
2r	[2F\
=14	=14
2r	8.F\L]
.	16c\Jk
.	8.c\L
.	16c\Jk
=15	=15
2r	4c\
.	8d\L
.	8c\J
=16	=16
2r	8.A\L
.	16B-\Jk
.	8A\L
.	8G\J
=17	=17
2r	8.F\L
.	16F\Jk
.	12F\L
.	8D\
.	24D\Jk
=18	=18
2r	8.C/L
.	16C/Jk
.	4C/
=19	=19
2r	8.F\L
.	16F\Jk
.	4F\
=20	=20
2r	12A\L
.	8A\
.	24A\Jk
.	8.G\L
.	16A\Jk
=21	=21
2r	16.G\LL
.	32A\K
.	16G\
.	16F\JJ
.	8.F\L
.	16F\Jk
=22	=22
2r	[2F\
=23	=23
2r	2F\]
==	==
*-	*-
